src/status/16/fcitx-chewing.svg

<svg width="16" height="16" version="1.1" xmlns="http://www.w3.org/2000/svg">
 <defs>
  <style id="current-color-scheme" type="text/css"/>
 </defs>
 <path d="m2 2h6v1h-2v3h2l-0.4-0.3s1.4-1.95 1.4-3.7h1c0 0.709-0.165 1.389-0.383 2h1.383v-2h1v2h2v1h-2v2h2v1h-5v-1h2v-2h-1.803c-0.397 0.79-0.797 1.3-0.797 1.3l-0.4-0.3v8h-6v-8h1v-3h-1zm2 1v3h1v-3zm0 4v3h-1v1h3v1h-3v1h4v-6h-1v3h-1v-3zm5 2h5v5h-5zm1 1v3h3v-3z" color="#363636" fill="currentColor"/>
 <path class="ColorScheme-Text" d="m3 0c-1.662 0-3 1.338-3 3v10c0 1.662 1.338 3 3 3h9.9989c1.662 0 3-1.338 3-3v-10c0-1.662-1.338-3-3-3zm0 1h9.9989c1.108 0 2 0.892 2 2v10c0 1.108-0.892 2-2 2h-9.9989c-1.108 0-2-0.892-2-2v-10c0-1.108 0.892-2 2-2z" color="#363636" fill="currentColor"/>
</svg>

<svg xmlns="http://www.w3.org/2000/svg" width="16" height="16">
    <path fill="currentColor" fill-opacity=".7" d="M2 2h6v1H6v3h2l-.4-.3S9 3.75 9 2h1c0 .709-.165 1.389-.383 2H11V2h1v2h2v1h-2v2h2v1H9V7h2V5H9.197C8.8 5.79 8.4 6.3 8.4 6.3L8 6v8H2V6h1V3H2zm2 1v3h1V3zm0 4v3H3v1h3v1H3v1h4V7H6v3H5V7zm5 2h5v5H9zm1 1v3h3v-3z" color="#050505"/>
    <path fill="currentColor" fill-opacity=".7" d="M3 0C1.338 0 0 1.338 0 3v10c0 1.662 1.338 3 3 3h9.999c1.662 0 3-1.338 3-3V3c0-1.662-1.338-3-3-3zm0 1h9.999c1.108 0 2 .892 2 2v10c0 1.108-.892 2-2 2H3c-1.108 0-2-.892-2-2V3c0-1.108.892-2 2-2z" class="ColorScheme-Text" color="#050505"/>
</svg>
